!!!COM: Bach, Johann Sebastian
!!!CDT: 1685/3//-1750/7/28/
!!!OTL@@DE: Ich dank' dir, lieber Herre
!!!AGN: 4-Part Chorale
!!!SCT: BH 272
!!!SCT: BWV 348
**harm	**root	**kern	**kern	**kern	**kern
!	!	!bass	!tenor	!alto	!soprno
*	*Iorgan	*Iorgan	*Iorgan	*Iorgan	*Iorgan
*M4/4	*M4/4	*M4/4	*M4/4	*M4/4	*M4/4
*met(c)	*met(c)	*met(c)	*met(c)	*met(c)	*met(c)
*MM60	*MM60	*MM60	*MM60	*MM60	*MM60
*k[b-e-a-d-]	*k[b-e-a-d-]	*k[b-e-a-d-]	*k[b-e-a-d-]	*k[b-e-a-d-]	*k[b-e-a-d-]
*A-:	*A-:	*A-:	*A-:	*A-:	*A-:
*>[A,B,B1,B,B2]	*>[A,B,B1,B,B2]	*>[A,B,B1,B,B2]	*>[A,B,B1,B,B2]	*>[A,B,B1,B,B2]	*>[A,B,B1,B,B2]
*>A	*>A	*>A	*>A	*>A	*>A
I	4BB-	8A-	4c	4e-	4a-
.	.	8G	.	.	.
=1	=1	=1	=1	=1	=1
vi	4GG	4F	8c	4f	4a-
.	.	.	8d-	.	.
V7b/IV	4BB-	4C	4e-	4g-	4a-
=!|:	=!|:	=!|:	=!|:	=!|:	=!|:
*>B	*>B	*>B	*>B	*>B	*>B
IV	4EE-	4D-	8d-	4f	4a-
.	.	.	8c	.	.
Vb/V	4CC	4D	4B-	4f	4b-
=2	=2	=2	=2	=2	=2
v	4FF	4E-	4B-	8f	4g-
.	.	.	.	4e-	.
V7/V	4CC	4BB-	4A-	.	4f
.	.	.	.	8d	.
V;	4FF;	4EE-;	4G;	4e-;	4e-;
Vb	4FF	4GG	4B-	4e-	4b-
=3	=3	=3	=3	=3	=3
I	4BB-	4AA-	8A-	4e-	4cc
.	.	.	8G	.	.
V/V	4CC	4BB-	4F	4d	4b-
IVb/V	4BB-	4C	4E-	4e-	4a-
Vb/V	4CC	4D	4B-	[4B-	8g
.	.	.	.	.	8f
=4	=4	=4	=4	=4	=4
I/V	4FF	4E-	4B-	8B-]	4g
.	.	.	.	4e-	.
V7/V	4CC	4BB-	4A-	.	4f
.	.	.	.	8d	.
I/V;	4FF;	4EE-;	4G;	4B-;	4e-;
*>B1	*>B1	*>B1	*>B1	*>B1	*>B1
IVb/V	4BB-	4C	4A-	4e-	4a-
=1	=1	=1	=1	=1	=1
IV	4EE-	4D-	8A-	4f	4a-
.	.	.	8B-	.	.
I	4BB-	4AA-	4c	4e-	4a-
=:|!	=:|!	=:|!	=:|!	=:|!	=:|!
*>B2	*>B2	*>B2	*>B2	*>B2	*>B2
IVb/V	8BB-	4C	8c	8a-	4ee-
iii7	8DD	.	8B-	8g	.
=5	=5	=5	=5	=5	=5
IVb	4EE-	4F	8A-	4f	4dd-
.	.	.	8B-	.	.
I	4BB-	4A-	8c	8e-	4cc
.	.	.	8d-	8f	.
V7d	4FF	4D-	4e-	4g	4b-
Vb/IV	4BB-	4C	4e-	8a-	4a-
.	.	.	.	8g-	.
=6	=6	=6	=6	=6	=6
IV	4EE-	4D-	2A-	4f	8a-
.	.	.	.	.	8b-
I	4BB-	4AA-	.	4e-	4cc
V;	4FF;	4E-;	4G;	4e-;	4b-;
viiob/ii	4BB	4C	4A	4e-	4cc
!!linebreak: 2
=7	=7	=7	=7	=7	=7
ii	4CC	4BB-	4.B-	4d-	4dd-
viio7b/IV	8DD	8E-	.	8g-	4cc
V/ii	8GG	8F	8A	[8f	.
vb	4FF	4G-	4B-	8f]	4b-
.	.	.	.	8e-	.
V/ii	4GG	4F	4c	4f	4a
=8	=8	=8	=8	=8	=8
ii;	2.CC;	2.BB-;	2.d-;	2.f;	2.b-;
V7d	4FF	4D-	4G	4B-	4e-
=9	=9	=9	=9	=9	=9
Ib	4BB-	4C	4A-	4e-	4a-
ii	4CC	4BB-	4D-	8f	4b-
.	.	.	.	8g	.
I	4BB-	4AA-	8E-	4a-	4cc
.	.	.	8e-	.	.
-viiob/iii	4CC	4BB-	[4d-	8g	4dd-
.	.	.	.	8f	.
=10	=10	=10	=10	=10	=10
iii	4DD	4C	8d-]	4e-	4ee-
.	.	.	8c	.	.
iib	8CC	4D-	8B-	4f	8dd-
IV7	8EE-	.	8A-	.	8cc
V;	4FF;	4E-;	4e-;	4g;	4b-;
IVb	4EE-	4F	4A-	4a-	4dd-
=11	=11	=11	=11	=11	=11
V7c/IV	4BB-	4E-	[4A-	4g-	4cc
iib	4CC	2D-	8A-]	4f	4b-
.	.	.	8B-	.	.
V7d	4FF	.	4G	4e-	4ee-
Ib	8BB-	8C	4A-	8e-	8a-
ii7b	8CC	8D-	.	8f	8b-
=12	=12	=12	=12	=12	=12
Ic	4BB-	4E-	4A-	8e-	4cc
.	.	.	.	[8d-	.
V7	4FF	4EE-	4G	8d-]	4b-
.	.	.	.	8c	.
I;	4BB-;	4AA-;	4E-;	4c;	4a-;
==	==	==	==	==	==
*-	*-	*-	*-	*-	*-
!!!ONB: m.10, b.4 changed from Ib to IVb
!!chor2scor: -l 2 -s 0.6 -o %b.pmx
!!!YEC: Copyright 1994, David Huron
!!!YEC: Changes/Additions 2001 by Craig Stuart Sapp
!!!YEN: United States of America
!!!SMA: 371 Bach Chorales, edited by Ludwig Erk, C.F. Peters
!!!PDT: 1850, 1865
!!!ONB: Harmony and Root analysis done manually
